src/assets/skills/javascript.svg

<svg width="479" height="479" fill="none" xmlns="http://www.w3.org/2000/svg"><path d="M0 0h479v479H0V0Z" fill="#F7DF1E"/><path d="m126 400.3 36.6-22.2c7 12.5 13.5 23.2 29 23.2 14.7 0 24-5.8 24-28.3V220h45v153.6c0 46.6-27.3 67.8-67.1 67.8-36 0-57-18.6-67.6-41.1h.1Zm159.1-4.8 36.7-21.3c9.6 15.8 22.2 27.4 44.3 27.4 18.7 0 30.6-9.4 30.6-22.2 0-15.4-12.2-21-32.8-30l-11.3-4.7c-32.4-13.9-54-31.2-54-67.9 0-33.7 25.7-59.5 66-59.5 28.6 0 49.1 10 64 36L393.4 276c-7.7-13.9-16.1-19.3-29-19.3-13.1 0-21.5 8.3-21.5 19.3 0 13.5 8.4 19 27.6 27.3L382 308c38.3 16.4 59.8 33.1 59.8 70.7 0 40.6-31.8 62.7-74.6 62.7-41.8 0-68.8-19.9-82-46l-.1.1Z" fill="#000"/></svg>

<svg width="479" height="479" viewBox="0 0 479 479" fill="none" xmlns="http://www.w3.org/2000/svg">
<path d="M0 0H479V479H0V0Z" fill="#F7DF1E"/>
<path d="M126 400.3L162.6 378.1C169.6 390.6 176.1 401.3 191.6 401.3C206.3 401.3 215.6 395.5 215.6 373V220H260.6V373.6C260.6 420.2 233.3 441.4 193.5 441.4C157.5 441.4 136.5 422.8 125.9 400.3H126ZM285.1 395.5L321.8 374.2C331.4 390 344 401.6 366.1 401.6C384.8 401.6 396.7 392.2 396.7 379.4C396.7 364 384.5 358.4 363.9 349.4L352.6 344.7C320.2 330.8 298.6 313.5 298.6 276.8C298.6 243.1 324.3 217.3 364.6 217.3C393.2 217.3 413.7 227.3 428.6 253.3L393.4 276C385.7 262.1 377.3 256.7 364.4 256.7C351.3 256.7 342.9 265 342.9 276C342.9 289.5 351.3 295 370.5 303.3L382 308C420.3 324.4 441.8 341.1 441.8 378.7C441.8 419.3 410 441.4 367.2 441.4C325.4 441.4 298.4 421.5 285.2 395.4L285.1 395.5Z" fill="black"/>
</svg>
